X: 2
T: Fogwatt Burns Supper
R: march
M: 4/4
L: 1/8
K: Amaj
A>B|c2 A2 e2 A2|a2 f2 d2 A>B|c>Ae>A f>ec>A|B2 E2 E2
A>B|c2 A2 e2 A2|f>df>a a>fe>d|c>af>d c>ed>B|c2 A2 A2:|
c>d|e4 {fg}a2 e2|A>Bc>d e2 a>e|f2 d<B e2 c<A|B>e^d>f (3gfe (3=dcB|
A2 c<A e2 c<A|f<a d<e e2 c<A|B>cd>e f<a e>d|c2 A<A A2:|
|:E>D|C>EA>E F>DA>F|G>Be>d c>AE>D|C>EA>E D>FB>A|G>ed>B A2:|
|:c>d|e>Aa>A f>Aa>f|e>ae>c A>ce>c|B>c^d>e f>dB>d|e>Bf>^d e2 {g}a2|
A<A c>A E>Ac>A|D<D F>A d>fd>B|e/e/e ae f>dB>G|A2 a2 A2:|

